_includes/icons/ios-apple.svg

<svg fill="#666" height="50" viewBox="0 0 50 50" width="50" xmlns="http://www.w3.org/2000/svg"><path d="m33.375 0c-2.835937.191406-5.871094 1.878906-7.75 4.15625-1.644531 2.003906-3.023437 4.945313-2.5 8-.46875-.144531-.894531-.160156-1.40625-.34375-1.394531-.496094-2.988281-1.03125-4.96875-1.03125-3.933594 0-7.960937 2.339844-10.5 6.25-3.695312 5.679688-2.953125 15.675781 2.65625 24.21875.988281 1.5 2.140625 3.136719 3.5625 4.4375s3.140625 2.292969 5.15625 2.3125c1.722656.019531 2.921875-.554687 4-1.03125 1.078125-.476562 2.082031-.898437 3.96875-.90625h.03125c1.878906-.015625 2.851563.398438 3.90625.875 1.054688.476563 2.242188 1.078125 3.96875 1.0625 2.054688-.015625 3.800781-1.140625 5.25-2.53125s2.640625-3.097656 3.625-4.59375c1.410156-2.148437 1.976563-3.320312 3.0625-5.71875.113281-.25.117188-.539062.007813-.792969-.105469-.253906-.3125-.453125-.570313-.550781-3.554687-1.34375-5.582031-4.488281-5.875-7.8125s1.113281-6.746094 4.65625-8.6875c.261719-.140625.445313-.386719.507813-.675781.058593-.289063-.011719-.59375-.195313-.824219-2.542969-3.160156-6.121094-5.03125-9.625-5.03125-2.234375 0-3.875.527344-5.21875 1.03125-.222656.085938-.386719.078125-.59375.15625 1.363281-.71875 2.566406-1.714844 3.46875-2.875 1.640625-2.105469 2.90625-5.101562 2.4375-8.25-.078125-.515625-.542969-.8828125-1.0625-.84375zm-1.0625 2.375c-.066406 2.019531-.757812 3.996094-1.90625 5.46875-1.203125 1.546875-3.226562 2.617188-5.1875 2.9375.035156-1.941406.800781-3.953125 1.96875-5.375 1.226563-1.484375 3.257813-2.554687 5.125-3.03125zm-15.5625 10.40625c1.613281 0 2.90625.417969 4.28125.90625s2.824219 1.0625 4.53125 1.0625c1.667969 0 2.988281-.578125 4.28125-1.0625s2.582031-.90625 4.5-.90625c2.503906 0 5.210938 1.300781 7.34375 3.5625-3.414062 2.410156-5.011719 6.167969-4.6875 9.8125.324219 3.683594 2.542969 7.179688 6.1875 9-.789062 1.71875-1.308594 2.855469-2.46875 4.625-.957031 1.457031-2.09375 3.050781-3.34375 4.25s-2.574219 1.957031-3.90625 1.96875c-1.285156.011719-2.015625-.371094-3.125-.875s-2.542969-1.082031-4.75-1.0625c-2.203125.011719-3.65625.566406-4.78125 1.0625s-1.863281.886719-3.15625.875c-1.367187-.011719-2.636719-.675781-3.84375-1.78125s-2.296875-2.613281-3.25-4.0625c-5.25-8-5.671875-17.398437-2.65625-22.03125 2.210938-3.402344 5.722656-5.34375 8.84375-5.34375z"/></svg>

<svg xmlns="http://www.w3.org/2000/svg" viewBox="0 0 50 50" width="50" height="50" fill="#666"><path d="M 33.375 0 C 30.539063 0.191406 27.503906 1.878906 25.625 4.15625 C 23.980469 6.160156 22.601563 9.101563 23.125 12.15625 C 22.65625 12.011719 22.230469 11.996094 21.71875 11.8125 C 20.324219 11.316406 18.730469 10.78125 16.75 10.78125 C 12.816406 10.78125 8.789063 13.121094 6.25 17.03125 C 2.554688 22.710938 3.296875 32.707031 8.90625 41.25 C 9.894531 42.75 11.046875 44.386719 12.46875 45.6875 C 13.890625 46.988281 15.609375 47.980469 17.625 48 C 19.347656 48.019531 20.546875 47.445313 21.625 46.96875 C 22.703125 46.492188 23.707031 46.070313 25.59375 46.0625 C 25.605469 46.0625 25.613281 46.0625 25.625 46.0625 C 27.503906 46.046875 28.476563 46.460938 29.53125 46.9375 C 30.585938 47.414063 31.773438 48.015625 33.5 48 C 35.554688 47.984375 37.300781 46.859375 38.75 45.46875 C 40.199219 44.078125 41.390625 42.371094 42.375 40.875 C 43.785156 38.726563 44.351563 37.554688 45.4375 35.15625 C 45.550781 34.90625 45.554688 34.617188 45.445313 34.363281 C 45.339844 34.109375 45.132813 33.910156 44.875 33.8125 C 41.320313 32.46875 39.292969 29.324219 39 26 C 38.707031 22.675781 40.113281 19.253906 43.65625 17.3125 C 43.917969 17.171875 44.101563 16.925781 44.164063 16.636719 C 44.222656 16.347656 44.152344 16.042969 43.96875 15.8125 C 41.425781 12.652344 37.847656 10.78125 34.34375 10.78125 C 32.109375 10.78125 30.46875 11.308594 29.125 11.8125 C 28.902344 11.898438 28.738281 11.890625 28.53125 11.96875 C 29.894531 11.25 31.097656 10.253906 32 9.09375 C 33.640625 6.988281 34.90625 3.992188 34.4375 0.84375 C 34.359375 0.328125 33.894531 -0.0390625 33.375 0 Z M 32.3125 2.375 C 32.246094 4.394531 31.554688 6.371094 30.40625 7.84375 C 29.203125 9.390625 27.179688 10.460938 25.21875 10.78125 C 25.253906 8.839844 26.019531 6.828125 27.1875 5.40625 C 28.414063 3.921875 30.445313 2.851563 32.3125 2.375 Z M 16.75 12.78125 C 18.363281 12.78125 19.65625 13.199219 21.03125 13.6875 C 22.40625 14.175781 23.855469 14.75 25.5625 14.75 C 27.230469 14.75 28.550781 14.171875 29.84375 13.6875 C 31.136719 13.203125 32.425781 12.78125 34.34375 12.78125 C 36.847656 12.78125 39.554688 14.082031 41.6875 16.34375 C 38.273438 18.753906 36.675781 22.511719 37 26.15625 C 37.324219 29.839844 39.542969 33.335938 43.1875 35.15625 C 42.398438 36.875 41.878906 38.011719 40.71875 39.78125 C 39.761719 41.238281 38.625 42.832031 37.375 44.03125 C 36.125 45.230469 34.800781 45.988281 33.46875 46 C 32.183594 46.011719 31.453125 45.628906 30.34375 45.125 C 29.234375 44.621094 27.800781 44.042969 25.59375 44.0625 C 23.390625 44.074219 21.9375 44.628906 20.8125 45.125 C 19.6875 45.621094 18.949219 46.011719 17.65625 46 C 16.289063 45.988281 15.019531 45.324219 13.8125 44.21875 C 12.605469 43.113281 11.515625 41.605469 10.5625 40.15625 C 5.3125 32.15625 4.890625 22.757813 7.90625 18.125 C 10.117188 14.722656 13.628906 12.78125 16.75 12.78125 Z"/></svg>
